X:6
T:Boys Of Bluehill, The
S:The Session: https://thesession.org/tunes/651#setting651
S:https://JamBuddy.live 2025
C:Traditional
R:hornpipe
K:D
M:4/4
L:1/8
Q:138
FA|: BA FA D2 FA| BA (3Bcd e2 de| fa gf eg fe| df ed B2 dB| 
|BA FA D2 FA| BA (3Bcd e2 de| fa gf eg fe|1 d2 f2 d2 FA:|2 d2 f2 d2 fg |]
|: af df a2 g2| ef ga b2 ag| fa gf eg fe| df ed B2 dB|
| BA FA D2 FA| BA (3Bcd e2 de| fa gf eg fe|1 d2 f2 d2 fg:|2 d2 f2 d4|]

